X: 4940
T: Breakout
R: jig
M: 6/8
K: Dminor
|:D2 A AGF|E2 c c3|DAA AGF|E/G/GE EDC|
D2 A AGF|E2 c c2 d/e/|fed cAe|1 d2 d d3:|2 d2 d d2 d/e/||
f2 f fgf|e^cA e^cA|d2 d dcB|ABG A3|
Add def|Aee efg|afd ^cAe|d2 d d2 d/e/|
f2 f fgf|e^cA e^cA|d2 d dcB|ABG A3|
FGA ABc|cde efg|afd ge^c|d2 d d3||

